polaris-icons/icons/newicons/ExchangeMajor.svg

<svg width="20" height="20" viewBox="0 0 20 20" fill="none" xmlns="http://www.w3.org/2000/svg">
<path fill-rule="evenodd" clip-rule="evenodd" d="M16.75 11.6145C17.7643 11.933 18.5 12.8806 18.5 14C18.5 15.3807 17.3807 16.5 16 16.5C14.6193 16.5 13.5 15.3807 13.5 14C13.5 12.8806 14.2357 11.933 15.25 11.6145V9.00001C15.25 7.75737 14.2426 6.75001 13 6.75001L10.8807 6.75001L11.3194 7.26192C11.589 7.57641 11.5526 8.04989 11.2381 8.31946C10.9236 8.58902 10.4501 8.5526 10.1806 8.23811L8.68056 6.48811C8.43981 6.20724 8.43981 5.79279 8.68056 5.51192L10.1806 3.76192C10.4501 3.44743 10.9236 3.411 11.2381 3.68057C11.5526 3.95014 11.589 4.42361 11.3194 4.73811L10.8807 5.25001H13C15.0711 5.25001 16.75 6.92895 16.75 9.00001V11.6145ZM15.9966 13C15.4459 13.0018 15 13.4489 15 14C15 14.5523 15.4477 15 16 15C16.5523 15 17 14.5523 17 14C17 13.4489 16.5541 13.0019 16.0034 13L16 13L15.9966 13Z" fill="black"/>
<path fill-rule="evenodd" clip-rule="evenodd" d="M4.75 8.38555C5.76428 8.06698 6.5 7.11941 6.5 6C6.5 4.61929 5.38071 3.5 4 3.5C2.61929 3.5 1.5 4.61929 1.5 6C1.5 7.11941 2.23572 8.06698 3.25 8.38555L3.25 11C3.25 13.0711 4.92893 14.75 7 14.75H9.11933L8.68056 15.2619C8.41099 15.5764 8.44741 16.0499 8.7619 16.3194C9.0764 16.589 9.54987 16.5526 9.81944 16.2381L11.3194 14.4881C11.5602 14.2072 11.5602 13.7928 11.3194 13.5119L9.81944 11.7619C9.54987 11.4474 9.0764 11.411 8.7619 11.6805C8.44741 11.9501 8.41099 12.4236 8.68056 12.7381L9.11933 13.25L7 13.25C5.75736 13.25 4.75 12.2426 4.75 11L4.75 8.38555ZM5 6C5 6.55228 4.55228 7 4 7C3.44772 7 3 6.55228 3 6C3 5.44772 3.44772 5 4 5C4.55228 5 5 5.44772 5 6Z" fill="black"/>
</svg>

<svg viewBox="0 0 20 20" fill="none" xmlns="http://www.w3.org/2000/svg"><path fill-rule="evenodd" clip-rule="evenodd" d="M16.75 11.614a2.501 2.501 0 1 1-1.5 0v-2.614a2.25 2.25 0 0 0-2.25-2.25h-2.12l.44.512a.75.75 0 1 1-1.14.976l-1.5-1.75a.75.75 0 0 1 0-.976l1.5-1.75a.75.75 0 1 1 1.14.976l-.44.512h2.12a3.75 3.75 0 0 1 3.75 3.75v2.614Zm-.753 1.386a1 1 0 1 0 .006 0h-.006Z" fill="#000"/><path fill-rule="evenodd" clip-rule="evenodd" d="M4.75 8.386a2.501 2.501 0 1 0-1.5 0v2.614a3.75 3.75 0 0 0 3.75 3.75h2.12l-.44.512a.75.75 0 1 0 1.14.976l1.5-1.75a.75.75 0 0 0 0-.976l-1.5-1.75a.75.75 0 0 0-1.14.976l.44.512h-2.12a2.25 2.25 0 0 1-2.25-2.25v-2.614Zm.25-2.386a1 1 0 1 1-2 0 1 1 0 0 1 2 0Z" fill="#000"/></svg>
